X:26
T:Jack in the Fog
S:Bernie Waugh
R:Reel
M:4/4
L:1/8
K:D Dorian
|:(3ABc|\
"G"d/d/dce d2 (3ABc|dcde "F"~c2AG|"Dm"A~d2c defd|(3ABc fd "F"~c2:|
Ac|:\
"G"BGG/G/G BGAc|BGG/G/G "Dm"DFAc|"G"BGG/G/G DGBG|1\
"F"F2fd cdec:|2\
"F"F2fd cd||
|:e^f|\
"Em"g/g/gbg agbg|gbg^f "D"d2de|"Bm"^f/f/fbf gfaf|^fafe "D"d2ef|
"Em"g/g/gbg agbg|gbg^f "D"d2de|"F"f/f/fef gfde|fefd "Am"c2:|\
(3ABc|"G"d4|]

